carriers/colissimo.svg

<svg width="128" height="64" viewBox="0 0 128 64" fill="none" xmlns="http://www.w3.org/2000/svg">
<rect width="128" height="64" rx="6" fill="white"/>
<path d="M23.6807 30.4058C23.615 30.4409 23.5418 30.4592 23.4674 30.4592C23.393 30.4592 23.3197 30.4409 23.2541 30.4058L22.5656 29.998C22.5042 29.959 22.4539 29.9049 22.4196 29.8408C22.3755 29.7768 22.3509 29.7014 22.3485 29.6238V28.823C22.3483 28.7487 22.3667 28.6756 22.402 28.6102C22.4373 28.5449 22.4884 28.4894 22.5506 28.4488L30.8016 23.6105L19.2016 17.2791C19.0535 17.2039 18.8886 17.1678 18.7226 17.1743C18.5606 17.1715 18.4002 17.2074 18.2548 17.2791L6.65484 23.6067L19.6581 31.1841C19.7214 31.2244 19.774 31.2795 19.8112 31.3448C19.8484 31.41 19.869 31.4833 19.8714 31.5583V42.6008C19.8696 42.6768 19.8484 42.7511 19.8097 42.8166C19.7711 42.8822 19.7163 42.9367 19.6506 42.975L18.9508 43.3492C18.8859 43.382 18.814 43.3987 18.7413 43.3978C18.6634 43.4028 18.5856 43.386 18.5168 43.3492L17.8133 42.975C17.7485 42.9359 17.6947 42.8812 17.6567 42.8158C17.6188 42.7503 17.598 42.6764 17.5963 42.6008V32.7483C17.5912 32.7102 17.5783 32.6735 17.5584 32.6406C17.5384 32.6078 17.5118 32.5795 17.4803 32.5574L6 25.8818V38.9524C6.00784 39.1128 6.05365 39.269 6.13367 39.4082C6.21369 39.5475 6.32562 39.6657 6.46026 39.7532L18.2661 46.7169C18.4064 46.7952 18.5658 46.8328 18.7263 46.8254C18.8854 46.8297 19.0427 46.7923 19.1828 46.7169L30.9924 39.7532C31.1242 39.6634 31.2336 39.5444 31.3121 39.4056C31.3906 39.2667 31.4361 39.1117 31.4452 38.9524V25.8818L23.6807 30.4058Z" fill="url(#paint0_linear_5_12681)"/>
<path d="M48.0556 29.0924C47.1425 28.5394 46.0877 28.265 45.0209 28.3029C41.7691 28.3029 39.408 30.5256 39.408 33.8971C39.408 37.2686 41.612 39.4464 45.0508 39.4464C46.1405 39.4764 47.217 39.2031 48.1603 38.6568V35.9552C47.395 36.5725 46.442 36.9104 45.4587 36.9131C43.5241 36.9131 42.3005 35.667 42.3005 33.8522C42.3005 31.9401 43.569 30.8399 45.3389 30.8399C46.3367 30.8205 47.3065 31.1696 48.0631 31.8203V29.0924H48.0556Z" fill="#3C3C3B"/>
<path d="M65.6277 36.7596C64.58 36.6736 64.0374 36.0636 64.0374 34.9747V23.6965H61.1748V35.1618C61.1748 38.2863 62.926 39.3079 65.6389 39.3229V36.7596H65.6277Z" fill="#3C3C3B"/>
<path d="M54.4729 28.3029C51.2886 28.3029 48.8975 30.548 48.8975 33.8709C48.8975 37.1937 51.2886 39.4463 54.4729 39.4463C57.6573 39.4463 60.0858 37.2012 60.0858 33.8709C60.0858 30.5405 57.6386 28.3029 54.4729 28.3029ZM54.4729 36.9617C52.9163 36.9617 51.7937 35.7867 51.7937 33.8746C51.7937 31.9625 52.9163 30.7912 54.4729 30.7912C56.0296 30.7912 57.1522 31.9662 57.1522 33.8746C57.1522 35.783 56.0258 36.9617 54.4729 36.9617Z" fill="#3C3C3B"/>
<path d="M71.6074 38.466C72.6639 39.0593 73.861 39.3567 75.0724 39.3266C77.557 39.3266 79.3045 38.2752 79.3045 35.9589C79.3045 34.0468 78.3728 32.9953 75.6224 32.4901C74.6159 32.2506 74.2342 31.9662 74.2342 31.4162C74.2342 30.8661 74.6421 30.5031 75.6 30.5031C76.6946 30.5219 77.7559 30.883 78.6347 31.5359V28.9727C77.6833 28.4263 76.5995 28.1531 75.5027 28.1831C73.2089 28.1831 71.439 29.2571 71.439 31.6033C71.439 33.5416 72.4418 34.4958 74.8553 34.9299C76.0266 35.1693 76.4831 35.4313 76.4831 36.0786C76.4831 36.726 75.8844 37.0104 74.9863 37.0104C73.7617 36.9578 72.5803 36.5423 71.5924 35.8167V38.466H71.6074Z" fill="#3C3C3B"/>
<path d="M66.9524 39.2069H69.8299V38.2902V28.5162H66.9524V39.2069Z" fill="#3C3C3B"/>
<path d="M68.3931 24.2542C68.1082 24.2534 67.8294 24.3372 67.5921 24.4949C67.3548 24.6526 67.1695 24.8771 67.0598 25.14C66.9501 25.403 66.9208 25.6926 66.9757 25.9722C67.0306 26.2518 67.1671 26.5088 67.368 26.7108C67.569 26.9128 67.8253 27.0507 68.1046 27.107C68.384 27.1633 68.6737 27.1356 68.9372 27.0272C69.2008 26.9189 69.4262 26.7348 69.5851 26.4983C69.7441 26.2618 69.8293 25.9835 69.83 25.6985C69.83 25.5098 69.7929 25.323 69.7206 25.1487C69.6484 24.9743 69.5426 24.8159 69.4092 24.6825C69.2757 24.5491 69.1173 24.4432 68.943 24.371C68.7687 24.2988 68.5818 24.2616 68.3931 24.2616" fill="#3C3C3B"/>
<path d="M116.406 28.3029C113.225 28.3029 110.834 30.548 110.834 33.8709C110.834 37.1937 113.225 39.4463 116.406 39.4463C119.586 39.4463 122 37.1974 122 33.8709C122 30.5443 119.583 28.3029 116.406 28.3029ZM116.406 36.9617C114.853 36.9617 113.727 35.7867 113.727 33.8746C113.727 31.9625 114.849 30.7912 116.406 30.7912C117.962 30.7912 119.085 31.9662 119.085 33.8746C119.085 35.783 117.959 36.9617 116.406 36.9617Z" fill="#3C3C3B"/>
<path d="M80.2663 38.466C81.3228 39.0594 82.5199 39.3567 83.7313 39.3267C86.2234 39.3267 87.9634 38.2752 87.9634 35.9589C87.9634 34.0468 87.0354 32.9953 84.2814 32.4901C83.2785 32.2507 82.8969 31.9663 82.8969 31.4162C82.8969 30.8661 83.301 30.5032 84.2627 30.5032C85.3571 30.5231 86.418 30.8842 87.2974 31.536V28.9727C86.3443 28.4269 85.2595 28.1538 84.1616 28.1832C81.8716 28.1832 80.0979 29.2571 80.0979 31.6033C80.0979 33.5416 81.1045 34.4958 83.5143 34.9299C84.6893 35.1694 85.142 35.4313 85.142 36.0787C85.142 36.726 84.5433 37.0104 83.664 37.0104C82.438 36.9585 81.2553 36.543 80.2663 35.8167V38.466Z" fill="#3C3C3B"/>
<path d="M89.1982 39.2069H92.0758V38.2902V28.5162H89.1982V39.2069Z" fill="#3C3C3B"/>
<path d="M90.6352 24.2541C90.3503 24.2519 90.0711 24.3342 89.8329 24.4906C89.5948 24.6471 89.4084 24.8706 89.2973 25.133C89.1863 25.3954 89.1555 25.6848 89.2089 25.9647C89.2623 26.2446 89.3975 26.5024 89.5974 26.7054C89.7973 26.9084 90.0529 27.0476 90.3319 27.1054C90.6109 27.1632 90.9008 27.1369 91.1649 27.0299C91.429 26.9229 91.6554 26.7401 91.8156 26.5044C91.9757 26.2687 92.0624 25.9909 92.0646 25.7059C92.0646 25.3249 91.9132 24.9594 91.6437 24.6899C91.3743 24.4204 91.0088 24.269 90.6277 24.269" fill="#3C3C3B"/>
<path d="M106.763 32.5388C106.763 31.4162 106.265 30.8399 105.139 30.8399C104.448 30.8318 103.764 30.9722 103.133 31.2515C103.275 31.6009 103.347 31.9746 103.346 32.3517V39.2031H100.458V32.5388C100.458 31.4162 99.93 30.8399 98.8299 30.8399C98.2226 30.8369 97.6184 30.9252 97.0375 31.1019V39.2031H94.1711V29.2459C95.7045 28.6517 97.3315 28.3362 98.9758 28.3141C100.021 28.261 101.055 28.5543 101.917 29.1486C103.044 28.5985 104.281 28.313 105.535 28.3141C108.072 28.3141 109.652 29.2945 109.652 32.4302V39.2069H106.759V32.5388H106.763Z" fill="#3C3C3B"/>
<defs>
<linearGradient id="paint0_linear_5_12681" x1="6.29561" y1="39.4538" x2="30.7828" y2="24.2541" gradientUnits="userSpaceOnUse">
<stop stop-color="#EC6608"/>
<stop offset="0.17" stop-color="#ED6C07"/>
<stop offset="0.39" stop-color="#EF7A07"/>
<stop offset="0.64" stop-color="#F39107"/>
<stop offset="0.9" stop-color="#F9AF06"/>
<stop offset="1" stop-color="#FBBA07"/>
</linearGradient>
</defs>
</svg>

<svg xmlns="http://www.w3.org/2000/svg" width="128" height="64" fill="none"><rect width="128" height="64" fill="#fff" rx="6"/><path fill="url(#a)" d="M23.68 30.406a.452.452 0 0 1-.426 0l-.688-.408a.422.422 0 0 1-.146-.157.405.405 0 0 1-.072-.217v-.801a.445.445 0 0 1 .203-.374l8.25-4.839-11.6-6.33a.974.974 0 0 0-.478-.106 1.018 1.018 0 0 0-.468.105l-11.6 6.328 13.003 7.577a.461.461 0 0 1 .213.374v11.043a.445.445 0 0 1-.22.374l-.7.374a.452.452 0 0 1-.21.049.42.42 0 0 1-.224-.049l-.704-.374a.45.45 0 0 1-.217-.374v-9.853a.28.28 0 0 0-.116-.19L6 25.881v13.07a1.014 1.014 0 0 0 .46.801l11.806 6.964c.14.078.3.116.46.108a.911.911 0 0 0 .457-.108l11.81-6.964a1.04 1.04 0 0 0 .452-.8V25.881l-7.764 4.524Z"/><path fill="#3C3C3B" d="M48.056 29.092a5.483 5.483 0 0 0-3.035-.79c-3.252 0-5.613 2.224-5.613 5.595 0 3.372 2.204 5.55 5.643 5.55a5.881 5.881 0 0 0 3.11-.79v-2.702a4.322 4.322 0 0 1-2.702.958c-1.935 0-3.159-1.246-3.159-3.06 0-1.913 1.269-3.013 3.039-3.013.998-.02 1.968.33 2.724.98v-2.728h-.007ZM65.628 36.76c-1.048-.086-1.59-.696-1.59-1.785V23.696h-2.863v11.466c0 3.124 1.751 4.146 4.464 4.16V36.76h-.011ZM54.473 28.303c-3.184 0-5.575 2.245-5.575 5.568 0 3.323 2.39 5.575 5.575 5.575 3.184 0 5.613-2.245 5.613-5.575s-2.447-5.568-5.613-5.568Zm0 8.659c-1.557 0-2.68-1.175-2.68-3.087 0-1.913 1.123-3.084 2.68-3.084 1.557 0 2.68 1.175 2.68 3.084 0 1.908-1.127 3.087-2.68 3.087ZM71.607 38.466a6.735 6.735 0 0 0 3.465.86c2.485 0 4.233-1.05 4.233-3.367 0-1.912-.932-2.964-3.683-3.469-1.006-.24-1.388-.524-1.388-1.074s.408-.913 1.366-.913a5.24 5.24 0 0 1 3.035 1.033v-2.563a5.962 5.962 0 0 0-3.132-.79c-2.294 0-4.064 1.074-4.064 3.42 0 1.939 1.003 2.893 3.416 3.327 1.172.24 1.628.501 1.628 1.149 0 .647-.599.931-1.497.931a6.181 6.181 0 0 1-3.394-1.193v2.649h.015ZM66.952 39.207h2.878V28.516h-2.878v10.69ZM68.393 24.254a1.44 1.44 0 1 0 1.328.895 1.436 1.436 0 0 0-1.328-.887M116.406 28.303c-3.181 0-5.572 2.245-5.572 5.568 0 3.323 2.391 5.575 5.572 5.575 3.18 0 5.594-2.249 5.594-5.575 0-3.327-2.417-5.568-5.594-5.568Zm0 8.659c-1.553 0-2.679-1.175-2.679-3.087 0-1.913 1.122-3.084 2.679-3.084 1.556 0 2.679 1.175 2.679 3.084 0 1.908-1.126 3.087-2.679 3.087ZM80.266 38.466a6.735 6.735 0 0 0 3.465.86c2.492 0 4.232-1.05 4.232-3.367 0-1.912-.928-2.964-3.682-3.469-1.003-.24-1.384-.524-1.384-1.074s.404-.913 1.366-.913a5.257 5.257 0 0 1 3.034 1.033v-2.563a5.988 5.988 0 0 0-3.135-.79c-2.29 0-4.064 1.074-4.064 3.42 0 1.939 1.007 2.893 3.416 3.327 1.175.24 1.628.501 1.628 1.149 0 .647-.599.931-1.478.931a6.182 6.182 0 0 1-3.398-1.193v2.649ZM89.198 39.207h2.878V28.516h-2.878v10.69ZM90.635 24.254a1.442 1.442 0 1 0 1.43 1.452 1.437 1.437 0 0 0-1.437-1.437M106.763 32.539c0-1.123-.498-1.7-1.624-1.7a4.816 4.816 0 0 0-2.006.413c.142.349.214.723.213 1.1v6.851h-2.888V32.54c0-1.123-.528-1.7-1.628-1.7a6.056 6.056 0 0 0-1.793.263v8.101h-2.866v-9.957a13.81 13.81 0 0 1 4.805-.932 4.757 4.757 0 0 1 2.941.835 8.23 8.23 0 0 1 3.618-.835c2.537 0 4.117.98 4.117 4.116v6.777h-2.893v-6.668h.004Z"/><defs><linearGradient id="a" x1="6.296" x2="30.783" y1="39.454" y2="24.254" gradientUnits="userSpaceOnUse"><stop stop-color="#EC6608"/><stop offset=".17" stop-color="#ED6C07"/><stop offset=".39" stop-color="#EF7A07"/><stop offset=".64" stop-color="#F39107"/><stop offset=".9" stop-color="#F9AF06"/><stop offset="1" stop-color="#FBBA07"/></linearGradient></defs></svg>
